src/assets/instagram.svg

<svg width="200" height="200" viewBox="0 0 200 200" fill="none" xmlns="http://www.w3.org/2000/svg">
<path opacity="0.2" d="M144 8H56C43.2696 8 31.0606 13.0571 22.0589 22.0589C13.0571 31.0606 8 43.2696 8 56V144C8 156.73 13.0571 168.939 22.0589 177.941C31.0606 186.943 43.2696 192 56 192H144C156.73 192 168.939 186.943 177.941 177.941C186.943 168.939 192 156.73 192 144V56C192 43.2696 186.943 31.0606 177.941 22.0589C168.939 13.0571 156.73 8 144 8ZM100 140C92.0887 140 84.3552 137.654 77.7772 133.259C71.1992 128.864 66.0723 122.616 63.0448 115.307C60.0173 107.998 59.2252 99.9556 60.7686 92.1964C62.312 84.4371 66.1216 77.3098 71.7157 71.7157C77.3098 66.1216 84.4371 62.312 92.1964 60.7686C99.9556 59.2252 107.998 60.0173 115.307 63.0448C122.616 66.0723 128.864 71.1992 133.259 77.7772C137.654 84.3552 140 92.0887 140 100C140 110.609 135.786 120.783 128.284 128.284C120.783 135.786 110.609 140 100 140Z" fill="#8444DF"/>
<path d="M100 52C90.5065 52 81.2262 54.8152 73.3326 60.0895C65.4391 65.3638 59.2868 72.8603 55.6538 81.6312C52.0208 90.402 51.0702 100.053 52.9223 109.364C54.7744 118.675 59.346 127.228 66.0589 133.941C72.7718 140.654 81.3246 145.226 90.6357 147.078C99.9468 148.93 109.598 147.979 118.369 144.346C127.14 140.713 134.636 134.561 139.911 126.667C145.185 118.774 148 109.494 148 100C148 87.2696 142.943 75.0606 133.941 66.0589C124.939 57.0571 112.73 52 100 52ZM100 132C93.671 132 87.4841 130.123 82.2218 126.607C76.9594 123.091 72.8579 118.093 70.4359 112.246C68.0139 106.399 67.3802 99.9645 68.6149 93.7571C69.8496 87.5497 72.8973 81.8479 77.3726 77.3726C81.8479 72.8973 87.5497 69.8496 93.7571 68.6149C99.9645 67.3801 106.399 68.0138 112.246 70.4359C118.093 72.8579 123.091 76.9594 126.607 82.2218C130.123 87.4841 132 93.671 132 100C131.974 108.479 128.594 116.603 122.598 122.598C116.603 128.594 108.479 131.974 100 132Z" fill="#8444DF"/>
<path d="M144 0H56C41.1479 0 26.9041 5.89998 16.402 16.402C5.89998 26.9041 0 41.1479 0 56V144C0 158.852 5.89998 173.096 16.402 183.598C26.9041 194.1 41.1479 200 56 200H144C158.852 200 173.096 194.1 183.598 183.598C194.1 173.096 200 158.852 200 144V56C200 41.1479 194.1 26.9041 183.598 16.402C173.096 5.89998 158.852 0 144 0ZM184 144C184 149.253 182.965 154.454 180.955 159.307C178.945 164.16 175.999 168.57 172.284 172.284C168.57 175.999 164.16 178.945 159.307 180.955C154.454 182.965 149.253 184 144 184H56C50.7471 184 45.5457 182.965 40.6927 180.955C35.8396 178.945 31.4301 175.999 27.7157 172.284C24.0014 168.57 21.055 164.16 19.0448 159.307C17.0346 154.454 16 149.253 16 144V56C16 45.3913 20.2143 35.2172 27.7157 27.7157C35.2172 20.2143 45.3913 16 56 16H144C149.253 16 154.454 17.0346 159.307 19.0448C164.16 21.055 168.57 24.0014 172.284 27.7157C175.999 31.4301 178.945 35.8396 180.955 40.6927C182.965 45.5457 184 50.7471 184 56V144Z" fill="#8444DF"/>
<path d="M152 60C158.627 60 164 54.6274 164 48C164 41.3726 158.627 36 152 36C145.373 36 140 41.3726 140 48C140 54.6274 145.373 60 152 60Z" fill="#8444DF"/>
</svg>

<svg width="200" height="200" fill="none" xmlns="http://www.w3.org/2000/svg"><path opacity=".2" d="M144 8H56A48 48 0 0 0 8 56v88a48 48 0 0 0 48 48h88a48 48 0 0 0 48-48V56a47.999 47.999 0 0 0-48-48Zm-44 132a40.002 40.002 0 0 1-39.231-47.804A40 40 0 1 1 100 140Z" fill="#8444DF"/><path d="M100 52a48 48 0 1 0 0 96 48 48 0 0 0 0-96Zm0 80a32.001 32.001 0 0 1-22.627-54.627A32 32 0 0 1 132 100a32.095 32.095 0 0 1-9.402 22.598A32.095 32.095 0 0 1 100 132Z" fill="#8444DF"/><path d="M144 0H56A56 56 0 0 0 0 56v88a56 56 0 0 0 56 56h88a56 56 0 0 0 56-56V56a56 56 0 0 0-56-56Zm40 144a40.001 40.001 0 0 1-40 40H56a40.003 40.003 0 0 1-40-40V56a40 40 0 0 1 40-40h88a39.998 39.998 0 0 1 40 40v88Z" fill="#8444DF"/><path d="M152 60c6.627 0 12-5.373 12-12s-5.373-12-12-12-12 5.373-12 12 5.373 12 12 12Z" fill="#8444DF"/></svg>
